communes/6290.svg

<?xml version="1.0" encoding="UTF-8" standalone="no"?>
<svg
   xmlns:dc="http://purl.org/dc/elements/1.1/"
   xmlns:cc="http://creativecommons.org/ns#"
   xmlns:rdf="http://www.w3.org/1999/02/22-rdf-syntax-ns#"
   xmlns:svg="http://www.w3.org/2000/svg"
   xmlns="http://www.w3.org/2000/svg"
   xmlns:xlink="http://www.w3.org/1999/xlink"
   xmlns:sodipodi="http://sodipodi.sourceforge.net/DTD/sodipodi-0.dtd"
   xmlns:inkscape="http://www.inkscape.org/namespaces/inkscape"
   height="763"
   width="603"
   version="1.0"
   id="svg20"
   sodipodi:version="0.32"
   inkscape:version="0.46"
   sodipodi:docname="Saas-Fee-coat of arms.svg"
   sodipodi:docbase="C:\Users\Camilo\Documents\Escudos de Suiza"
   inkscape:output_extension="org.inkscape.output.svg.inkscape">
  <metadata
     id="metadata31">
    <rdf:RDF>
      <cc:Work
         rdf:about="">
        <dc:format>image/svg+xml</dc:format>
        <dc:type
           rdf:resource="http://purl.org/dc/dcmitype/StillImage" />
        <dc:date>11-JUN-2010</dc:date>
        <dc:creator>
          <cc:Agent>
            <dc:title>Aliman5040</dc:title>
          </cc:Agent>
        </dc:creator>
        <cc:license
           rdf:resource="http://creativecommons.org/licenses/GPL/2.0/" />
        <dc:coverage />
        <dc:description />
        <dc:subject>
          <rdf:Bag />
        </dc:subject>
        <dc:language />
        <dc:title>Wappen Gemeinde Saas-Fee</dc:title>
      </cc:Work>
      <cc:License
         rdf:about="http://creativecommons.org/licenses/GPL/2.0/">
        <cc:permits
           rdf:resource="http://web.resource.org/cc/Reproduction" />
        <cc:permits
           rdf:resource="http://web.resource.org/cc/Distribution" />
        <cc:requires
           rdf:resource="http://web.resource.org/cc/Notice" />
        <cc:permits
           rdf:resource="http://web.resource.org/cc/DerivativeWorks" />
        <cc:requires
           rdf:resource="http://web.resource.org/cc/ShareAlike" />
        <cc:requires
           rdf:resource="http://web.resource.org/cc/SourceCode" />
      </cc:License>
    </rdf:RDF>
  </metadata>
  <defs
     id="defs29">
    <inkscape:perspective
       sodipodi:type="inkscape:persp3d"
       inkscape:vp_x="0 : 381.5 : 1"
       inkscape:vp_y="0 : 1000 : 0"
       inkscape:vp_z="603 : 381.5 : 1"
       inkscape:persp3d-origin="301.5 : 254.33333 : 1"
       id="perspective5149" />
    <linearGradient
       id="linearGradient2893">
      <stop
         style="stop-color:#ffffff;stop-opacity:0.3137255;"
         offset="0"
         id="stop2895" />
      <stop
         id="stop2897"
         offset="0.19"
         style="stop-color:#ffffff;stop-opacity:0.25098041;" />
      <stop
         style="stop-color:#6b6b6b;stop-opacity:0.1254902;"
         offset="0.60000002"
         id="stop2901" />
      <stop
         style="stop-color:#000000;stop-opacity:0.1254902;"
         offset="1"
         id="stop2899" />
    </linearGradient>
    <radialGradient
       inkscape:collect="always"
       xlink:href="#linearGradient2893"
       id="radialGradient3236"
       gradientUnits="userSpaceOnUse"
       gradientTransform="matrix(1.215027,1.531577e-24,1.464684e-23,1.266667,-839.1924,-490.4894)"
       cx="858.04236"
       cy="579.93323"
       fx="858.04236"
       fy="579.93323"
       r="300" />
    <inkscape:perspective
       id="perspective5197"
       inkscape:persp3d-origin="372.04724 : 350.78739 : 1"
       inkscape:vp_z="744.09448 : 526.18109 : 1"
       inkscape:vp_y="0 : 1000 : 0"
       inkscape:vp_x="0 : 526.18109 : 1"
       sodipodi:type="inkscape:persp3d" />
    <inkscape:perspective
       id="perspective3459"
       inkscape:persp3d-origin="372.04724 : 350.78739 : 1"
       inkscape:vp_z="744.09448 : 526.18109 : 1"
       inkscape:vp_y="0 : 1000 : 0"
       inkscape:vp_x="0 : 526.18109 : 1"
       sodipodi:type="inkscape:persp3d" />
  </defs>
  <sodipodi:namedview
     inkscape:window-height="720"
     inkscape:window-width="1280"
     inkscape:pageshadow="2"
     inkscape:pageopacity="0.0"
     guidetolerance="10.0"
     gridtolerance="10.0"
     objecttolerance="10.0"
     borderopacity="1.0"
     bordercolor="#666666"
     pagecolor="#ffffff"
     id="base"
     inkscape:zoom="0.47449367"
     inkscape:cx="349.79756"
     inkscape:cy="565.3375"
     inkscape:window-x="-8"
     inkscape:window-y="-8"
     inkscape:current-layer="layer2"
     showgrid="true"
     showguides="true">
    <inkscape:grid
       type="xygrid"
       id="grid5151"
       visible="true"
       enabled="true" />
  </sodipodi:namedview>
  <g
     inkscape:groupmode="layer"
     id="layer1"
     inkscape:label="Fond écu"
     style="display:inline"
     sodipodi:insensitive="true">
    <path
       id="path1899"
       d="M 1.5,1.49998 L 1.5,460.3679 C 1.5,626.6785 135.81456,761.5 301.49999,761.5 C 467.18543,761.5 601.5,626.6785 601.5,460.3679 L 601.5,1.49998 L 1.5,1.49998 z"
       style="fill:#2b5df2;fill-opacity:1" />
  </g>
  <g
     inkscape:groupmode="layer"
     id="layer2"
     inkscape:label="Meubles"
     style="display:inline"
     sodipodi:insensitive="true">
    <path
       style="opacity:1;fill:#5ab532;fill-opacity:1;fill-rule:evenodd;stroke:#000000;stroke-width:3;stroke-linecap:butt;stroke-linejoin:miter;stroke-miterlimit:4;stroke-dasharray:none;stroke-opacity:1"
       d="M 226,589 L 260,661 L 226,589 C 160,441 100,423 69.75,651.59375 C 124.77195,718.69776 208.15814,761.5 301.5,761.5 C 386.74162,761.49999 463.66514,725.79984 518.28125,668.5 C 522.37537,663.46162 526.29784,658.29505 530,653 C 500,423 440,441 374,590 L 340,661 L 374,590 C 400,481 200,481 226,589 z"
       id="path3282"
       sodipodi:nodetypes="ccccscccccc" />
    <g
       id="g3472"
       transform="translate(-13.5,26)">
      <path
         sodipodi:nodetypes="csssccscscc"
         id="path3393"
         d="M 335,88 C 315,38 240,35.5 240,73 C 240,113 350,103 350,168 C 350,183 320,208 280,208 C 248.98727,208 225,188 220,203 L 215,145.5 C 240,193 325,220.5 325,168 C 325,118 220,138 220,73 C 220,40.228962 250,38 275,38 C 302.47546,38 330,58 335,43 L 335,88 z"
         style="opacity:1;fill:#fcef3c;fill-opacity:1;fill-rule:evenodd;stroke:#000000;stroke-width:2.25;stroke-linecap:butt;stroke-linejoin:miter;stroke-miterlimit:4;stroke-dasharray:none;stroke-opacity:1" />
      <path
         sodipodi:nodetypes="ccccccccccssccssscc"
         id="path3465"
         d="M 340,38 C 327.58453,38 313.93868,38.557714 303.34375,43.125 C 313.05186,45.988339 321.52536,48.93176 327.375,48.5625 C 328.2785,48.358809 329.18835,48.183341 330.125,48.03125 C 332.41234,47.293953 334.08447,45.746587 335,43 L 335,47.5 C 358.24722,45.980287 388.39049,63.976217 400,93 L 400,43 C 395,58 367.47546,38 340,38 z M 292.8125,50.28125 C 287.96792,55.426507 285,62.695045 285,73 C 285,128 395,128 395,163 C 395,213 310,198 290,148 L 290,193 C 295,178 323.98727,208 355,208 C 395,208 415,183 415,168 C 415,103 310,113 310,73 C 310,67.071929 310,63 310.125,58.25 C 304.62775,54.73968 298.75782,52.087003 292.8125,50.28125 z"
         style="opacity:1;fill:#fcef3c;fill-opacity:1;fill-rule:evenodd;stroke:#000000;stroke-width:2.25;stroke-linecap:butt;stroke-linejoin:miter;stroke-miterlimit:4;stroke-dasharray:none;stroke-opacity:1" />
    </g>
    <path
       style="fill:#fcef3c;fill-opacity:1;fill-rule:evenodd;stroke:#000000;stroke-width:3;stroke-linecap:butt;stroke-linejoin:miter;stroke-miterlimit:4;stroke-dasharray:none;stroke-opacity:1"
       d="M 383.8125,361.5 L 413.8125,291.5 L 233.8125,296.5 C 280.53953,308.09389 260.25146,354.42879 253.8125,386.5 C 247.64717,417.20834 240.06113,449.66612 208.8125,471.5 L 273.8125,471.5 C 252.82907,448.3341 281.00674,405.93124 288.8125,371.5 C 309.88085,368.93593 317.3446,383.8635 318.8125,406.5 L 338.8125,346.5 C 325.94444,353.09895 321.92211,366.33221 293.8125,361.5 C 303.8125,331.5 313.8125,311.5 343.8125,306.5 C 373.8125,301.5 373.76955,340.05223 383.8125,361.5 z"
       id="path3470"
       sodipodi:nodetypes="cccscccccczc" />
    <path
       sodipodi:type="star"
       style="opacity:1;fill:#ffffff;fill-opacity:1;fill-rule:evenodd;stroke:#000000;stroke-width:3;stroke-linecap:butt;stroke-linejoin:miter;stroke-miterlimit:4;stroke-dasharray:none;stroke-opacity:1"
       id="path3486"
       sodipodi:sides="6"
       sodipodi:cx="60"
       sodipodi:cy="143"
       sodipodi:r1="70.491135"
       sodipodi:r2="25.794699"
       sodipodi:arg1="0.55258435"
       sodipodi:arg2="1.0761831"
       inkscape:flatsided="false"
       inkscape:rounded="0"
       inkscape:randomized="0"
       d="M 120,180 L 72.244518,165.70327 L 57.95706,213.46152 L 46.460655,164.9557 L -2.0429403,176.46152 L 34.216136,142.25243 L -3.9314175e-07,106 L 47.755482,120.29673 L 62.04294,72.538475 L 73.539345,121.0443 L 122.04294,109.53848 L 85.783864,143.74757 L 120,180 z"
       transform="matrix(0.8510281,-3.8504739e-2,3.8504739e-2,0.8510281,47.196346,82.292018)" />
    <path
       transform="matrix(0.8510281,-3.8504739e-2,3.8504739e-2,0.8510281,441.46035,82.292018)"
       d="M 120,180 L 72.244518,165.70327 L 57.95706,213.46152 L 46.460655,164.9557 L -2.0429403,176.46152 L 34.216136,142.25243 L -3.9314175e-07,106 L 47.755482,120.29673 L 62.04294,72.538475 L 73.539345,121.0443 L 122.04294,109.53848 L 85.783864,143.74757 L 120,180 z"
       inkscape:randomized="0"
       inkscape:rounded="0"
       inkscape:flatsided="false"
       sodipodi:arg2="1.0761831"
       sodipodi:arg1="0.55258435"
       sodipodi:r2="25.794699"
       sodipodi:r1="70.491135"
       sodipodi:cy="143"
       sodipodi:cx="60"
       sodipodi:sides="6"
       id="path3488"
       style="opacity:1;fill:#ffffff;fill-opacity:1;fill-rule:evenodd;stroke:#000000;stroke-width:3;stroke-linecap:butt;stroke-linejoin:miter;stroke-miterlimit:4;stroke-dasharray:none;stroke-opacity:1"
       sodipodi:type="star" />
  </g>
  <g
     inkscape:groupmode="layer"
     id="layer3"
     inkscape:label="Reflet final"
     style="display:inline"
     sodipodi:insensitive="true">
    <path
       style="fill:url(#radialGradient3236);fill-opacity:1"
       d="M 1.5,1.5 L 1.5,460.3679 C 1.5,626.67854 135.81454,761.5 301.49993,761.5 C 467.1854,761.5 601.5,626.67854 601.5,460.3679 L 601.5,1.5 L 1.5,1.5 z "
       id="path2346" />
  </g>
  <g
     inkscape:groupmode="layer"
     id="layer4"
     inkscape:label="Contour final"
     style="display:inline"
     sodipodi:insensitive="true">
    <path
       style="fill:none;fill-opacity:1;stroke:#000000;stroke-width:3;stroke-miterlimit:4;stroke-dasharray:none;stroke-opacity:1"
       d="M 1.5,1.5 L 1.5,460.36794 C 1.5,626.67854 135.81454,761.5 301.49993,761.5 C 467.1854,761.5 601.5,626.67854 601.5,460.36794 L 601.5,1.5 L 1.5,1.5 z"
       id="path3239" />
  </g>
</svg>

<?xml version="1.0" encoding="UTF-8"?>
<svg version="1.0" viewBox="0 0 603 763" xmlns="http://www.w3.org/2000/svg" xmlns:cc="http://creativecommons.org/ns#" xmlns:dc="http://purl.org/dc/elements/1.1/" xmlns:rdf="http://www.w3.org/1999/02/22-rdf-syntax-ns#" xmlns:xlink="http://www.w3.org/1999/xlink">
<metadata>
<rdf:RDF>
<cc:Work rdf:about="">
<dc:format>image/svg+xml</dc:format>
<dc:type rdf:resource="http://purl.org/dc/dcmitype/StillImage"/>
<dc:date>11-JUN-2010</dc:date>
<dc:creator>
<cc:Agent>
<dc:title>Aliman5040</dc:title>
</cc:Agent>
</dc:creator>
<cc:license rdf:resource="http://creativecommons.org/licenses/GPL/2.0/"/>
<dc:coverage/>
<dc:description/>
<dc:subject>
<rdf:Bag/>
</dc:subject>
<dc:language/>
<dc:title>Wappen Gemeinde Saas-Fee</dc:title>
</cc:Work>
<cc:License rdf:about="http://creativecommons.org/licenses/GPL/2.0/">
<cc:permits rdf:resource="http://web.resource.org/cc/Reproduction"/>
<cc:permits rdf:resource="http://web.resource.org/cc/Distribution"/>
<cc:requires rdf:resource="http://web.resource.org/cc/Notice"/>
<cc:permits rdf:resource="http://web.resource.org/cc/DerivativeWorks"/>
<cc:requires rdf:resource="http://web.resource.org/cc/ShareAlike"/>
<cc:requires rdf:resource="http://web.resource.org/cc/SourceCode"/>
</cc:License>
</rdf:RDF>
</metadata>
<defs>
<radialGradient id="a" cx="858.04" cy="579.93" r="300" gradientTransform="matrix(1.215 1.5316e-24 1.4647e-23 1.2667 -839.19 -490.49)" gradientUnits="userSpaceOnUse">
<stop stop-color="#fff" stop-opacity=".31373" offset="0"/>
<stop stop-color="#fff" stop-opacity=".25098" offset=".19"/>
<stop stop-color="#6b6b6b" stop-opacity=".12549" offset=".6"/>
<stop stop-opacity=".12549" offset="1"/>
</radialGradient>
</defs>
<g>
<path d="m1.5 1.5v458.87c0 166.31 134.31 301.13 300 301.13 165.69 0 300-134.82 300-301.13v-458.87h-600z" fill="#2b5df2"/>
<path d="m226 589 34 72-34-72c-66-148-126-166-156.25 62.594 55.022 67.104 138.41 109.91 231.75 109.91 85.242-1e-5 162.17-35.7 216.78-93 4.0941-5.0384 8.0166-10.205 11.719-15.5-30-230-90-212-156-63l-34 71 34-71c26-109-174-109-148-1z" fill="#5ab532" fill-rule="evenodd" stroke="#000" stroke-width="3"/>
<g transform="translate(-13.5,26)" fill="#fcef3c" fill-rule="evenodd" stroke="#000" stroke-width="2.25">
<path d="m335 88c-20-50-95-52.5-95-15 0 40 110 30 110 95 0 15-30 40-70 40-31.013 0-55-20-60-5l-5-57.5c25 47.5 110 75 110 22.5 0-50-105-30-105-95 0-32.771 30-35 55-35 27.475 0 55 20 60 5v45z"/>
<path d="m340 38c-12.415 0-26.061 0.55771-36.656 5.125 9.7081 2.8633 18.182 5.8068 24.031 5.4375 0.9035-0.20369 1.8134-0.37916 2.75-0.53125 2.2873-0.7373 3.9595-2.2847 4.875-5.0312v4.5c23.247-1.5197 53.39 16.476 65 45.5v-50c-5 15-32.525-5-60-5zm-47.188 12.281c-4.8446 5.1453-7.8125 12.414-7.8125 22.719 0 55 110 55 110 90 0 50-85 35-105-15v45c5-15 33.987 15 65 15 40 0 60-25 60-40 0-65-105-55-105-95 0-5.9281 0-10 0.125-14.75-5.4972-3.5103-11.367-6.163-17.312-7.9688z"/>
</g>
<path d="m383.81 361.5 30-70-180 5c46.727 11.594 26.439 57.929 20 90-6.1653 30.708-13.751 63.166-45 85h65c-20.983-23.166 7.1942-65.569 15-100 21.068-2.5641 28.532 12.364 30 35l20-60c-12.868 6.599-16.89 19.832-45 15 10-30 20-50 50-55s29.957 33.552 40 55z" fill="#fcef3c" fill-rule="evenodd" stroke="#000" stroke-width="3"/>
<path transform="matrix(.85103 -.038505 .038505 .85103 47.196 82.292)" d="m120 180-47.755-14.297-14.287 47.758-11.496-48.506-48.504 11.506 36.259-34.209-34.216-36.252 47.755 14.297 14.287-47.758 11.496 48.506 48.504-11.506-36.259 34.209 34.216 36.252z" fill="#fff" fill-rule="evenodd" stroke="#000" stroke-width="3"/>
<path transform="matrix(.85103 -.038505 .038505 .85103 441.46 82.292)" d="m120 180-47.755-14.297-14.287 47.758-11.496-48.506-48.504 11.506 36.259-34.209-34.216-36.252 47.755 14.297 14.287-47.758 11.496 48.506 48.504-11.506-36.259 34.209 34.216 36.252z" fill="#fff" fill-rule="evenodd" stroke="#000" stroke-width="3"/>
<path d="m1.5 1.5v458.87c0 166.31 134.31 301.13 300 301.13 165.69 0 300-134.82 300-301.13v-458.87h-600z" fill="url(#a)"/>
<path d="m1.5 1.5v458.87c0 166.31 134.31 301.13 300 301.13 165.69 0 300-134.82 300-301.13v-458.87h-600z" fill="none" stroke="#000" stroke-width="3"/>
</g>
</svg>
